surface dirt (
	color Cin=1,
output	color Cout=1,
output	float dirtDots=1,
)
{
    point PP=transform("shader",P);
    float mag=0;
    float freq = 10;
    float f=0.75;
    float amp = 4;
    float octave = 4;
    for(int i=1;i<octave;i++)
	{
        mag+=abs((float)noise("simplex",freq*PP*f))/f;
		f*=amp;
	}
    dirtDots = clamp(mag, 0,1);
    Cout = (color)(mag);
}

